www/assets/icons/wifi_find.svg

<svg xmlns="http://www.w3.org/2000/svg" width="24" height="24" viewBox="0 0 24 24" fill='currentColor'><path d="M11 13.5c0-3.36 2.64-6 6-6 2.2 0 4.08 1.13 5.13 2.86L24 8.48A16.88 16.88 0 0 0 12 3.5c-4.69 0-8.93 1.9-12 4.98L12 20.5l1.86-1.87C12.14 17.59 11 15.7 11 13.5"/><path d="M21 13.5c0-2.24-1.76-4-4-4s-4 1.76-4 4 1.76 4 4 4c.75 0 1.44-.21 2.03-.56l2.56 2.56L23 18.09l-2.56-2.56c.35-.59.56-1.28.56-2.03m-6 0c0-1.12.88-2 2-2s2 .88 2 2-.88 2-2 2-2-.88-2-2"/></svg>

<svg width="24" height="24" viewBox="0 0 24 24" xmlns="http://www.w3.org/2000/svg" fill='currentColor'><path d="M11 13.5C11 10.14 13.64 7.5 17 7.5C19.2 7.5 21.08 8.63 22.13 10.36L24 8.48C20.93 5.4 16.69 3.5 12 3.5C7.31 3.5 3.07 5.4 0 8.48L12 20.5L13.86 18.63C12.14 17.59 11 15.7 11 13.5Z"/><path d="M21 13.5C21 11.26 19.24 9.5 17 9.5C14.76 9.5 13 11.26 13 13.5C13 15.74 14.76 17.5 17 17.5C17.75 17.5 18.44 17.29 19.03 16.94L21.59 19.5L23 18.09L20.44 15.53C20.79 14.94 21 14.25 21 13.5ZM15 13.5C15 12.38 15.88 11.5 17 11.5C18.12 11.5 19 12.38 19 13.5C19 14.62 18.12 15.5 17 15.5C15.88 15.5 15 14.62 15 13.5Z"/></svg>
